X:26
T:Mrs. Fergusson of Raith's Delight
S:Petrie's Collection of Strathspey Reels and Country Dances &c., 1790
Z:Steve Wyrick <sjwyrick'at'gmail'dot'com>, 3/6/04
N:Petrie's First Collection, page 13
L:1/8
M:C
R:Strathspey
K:A
"^Slow"
A|A,>CE>F  E>FA>B           |A/B/c/A/ d/c/B/A/ TB>AB<c     |\
  A,>CE>F  E>FA>B           |A/B/c/A/ d/c/B/A/  E<AA      :|
f|e<cTa>e  a/g/f/e/ d/c/B/A/|d>e f/e/d/c/       d<B (Bc/d/)|\
  e<cTa>e  a/g/f/e/ d/c/B/A/|d/e/f/d/ e/f/g/e/  aA Ac/d/   |
  e<ca>e   a/g/f/e/ d/c/B/A/|e/c/d/e/ f/e/d/c/  d<BB>c     |\
  A,>CTE>F E>FA>B           |A/c/e/c/ d/c/B/A/  EAA       |]
